Assets/symbols/upper_menu/account/log_out.svg

<svg width="24px" height="24px" viewBox="0 0 24 24" xmlns="http://www.w3.org/2000/svg"><path d="M16 13v-2H7V8l-5 4 5 4v-3z"/><path d="M20 3h-9c-1.103 0-2 .897-2 2v4h2V5h9v14h-9v-4H9v4c0 1.103.897 2 2 2h9c1.103 0 2-.897 2-2V5c0-1.103-.897-2-2-2z"/></svg>

<svg width="24px" height="24px" viewBox="0 0 24 24" xmlns="http://www.w3.org/2000/svg">
<path d="M 16 13 V 11 H 7 V 8 L 2 12 L 7 16 V 13 Z"/>
<path d="M 20 3 H 11 C 9.897 3 9 3.897 9 5 V 9 H 11 V 5 H 20 V 19 H 11 V 15 H 9 V 19 C 9 20.103 9.897 21 11 21 H 20 C 21.103 21 22 20.103 22 19 V 5 C 22 3.897 21.103 3 20 3 Z"/></svg>
